!! 00000] TT[00
!!!OTL: Na you xiankong hui niangjia
!!!ARE: Asia, China,Hubei
!! Ethnic Group: Han
!! Zhongguo Minge Jing Xuan, S. 137
!!!SCT: C1173
!!!YEM: Copyright 1995, estate of Helmut Schaffrath.
**kern
*ICvox
*Ivox
!! Mixed meters:  2/4; 3/4
*M3/4
*k[f#c#]
*D:
{8.dd
16ee
16dd
16ee
8dd
=1
16dd
16ee
4a
8dd
=2
8dd
16dd
16ff#
4ee}
=3
{8dd
8f#
8a
16a
16f#
=4
8a
4a
16e
16f#
=5
16a
16b
16e
16f#
4a}
=6
{8.a
16dd
16dd
16ee
8f#
=7
8a
16a
16dd
8a
16a
16f#
=8
8a
8f#
4a
4dd
=9
*M2/4
8f#
4a
8f#
=10
16f#
16e
16d
16f#
4e}
=11
{8.dd
16ee
16dd
16ee
8dd
=12
16dd
16ee
4a
8dd
=13
8dd
16dd
16ff#
4ee}
=14
{8dd
8f#
8a
16a
16f#
=15
8a
4a
8f#
=16
16a
16b
16e
16f#
4a}
=17
{8.dd
16dd
16f#
16a
16f#
16a
=18
16dd
16f#
8a
8a
16a
16f#
=19
*M3/4
8a
8f#
4a
4dd
=20
*M2/4
8f#
4a
16f#
16e
=21
16f#
16e
16d
16f#
4e}
=22
{16dd
16dd
16dd
16ff#
4ee
=23
16dd
16ee
16dd
16ee
4a}
=24
{8.dd
16dd
16f#
16a
16f#
16a
=25
16dd
16ff#
8a
8a
16a
16f#
=26
*M3/4
8.a
16f#
4a
4dd
=27
*M2/4
8f#
4a
16f#
16e
=28
16f#
16e
16d
16f#
4e}
=29
{8a
16dd
16dd
16dd
16ee
8dd
=30
16dd
16ee
4a
8dd
=31
8dd
16dd
16ff#
4ee}
=32
{8.dd
16f#
8a
16a
16f#
=33
8a
4a
16e
16f#
=34
16f#
16a
16e
16f#
4a}
=35
{8.a
16dd
16dd
16ee
8f#
=36
8a
16a
16dd
8a
16a
16f#
=37
*M3/4
8a
8f#
4a
4dd
=38
*M2/4
8f#
4a
16f#
16e
=39
16d
16e
16d
16f#
4e}
=40
{8.dd
16ee
16dd
16ee
8dd
=41
16dd
16ee
4a
8dd
=42
8dd
16dd
16ff#
4ee}
=43
{8.dd
16f#
8a
16a
16f#
=44
8a
4a
16e
16f#
=45
16a
16b
16e
16f#
4a}
=46
{8.a
16dd
16dd
16ee
8f#
=47
8a
8.a
16dd
16f#
16f#
=48
*M3/4
8a
8f#
4a
4dd
=49
*M2/4
8f#
4a
8f#
=50
16f#
16a
16d
16f#
4e}
=51
{16dd
16dd
16dd
16ff#
4ee
=52
16dd
16ee
16dd
16ee
4a}
=53
{8.a
16dd
16dd
16ee
8f#
=54
8a
8a
16a
16dd
16f#
16f#
=55
*M3/4
8.a
16f#
4a
4dd
=56
*M2/4
8ff#
4ff#
8aa
=57
16ff#
16aa
16dd
16ff#
4ee}
==
!!!AGN: Xiaodiao
!! 4 Strophen sind verschieden lang!!
!!!ONB: ESAC (Essen Associative Code) Database: CHINA_068
!!!AMT: irregular
!!!AIN: vox
!!!EED: Helmut Schaffrath
!!!EEV: 1.0
*-
